; generated by PrusaSlicer 2.3.0+win64 on 2021-03-14 at 10:33:24 UTC

; 

; external perimeters extrusion width = 0.45mm
; perimeters extrusion width = 0.45mm
; infill extrusion width = 0.45mm
; solid infill extrusion width = 0.45mm
; top infill extrusion width = 0.40mm
; first layer extrusion width = 0.42mm

M73 P0 R24
M73 Q0 S24
M201 X1000 Y1000 Z200 E5000 ; sets maximum accelerations, mm/sec^2
M203 X200 Y200 Z12 E120 ; sets maximum feedrates, mm/sec
M204 P1250 R1250 T1250 ; sets acceleration (P, T) and retract acceleration (R), mm/sec^2
M205 X8.00 Y8.00 Z0.40 E4.50 ; sets the jerk limits, mm/sec
M205 S0 T0 ; sets the minimum extruding and travel feed rate, mm/sec
M107
;TYPE:Custom
M862.3 P "MK3S" ; printer model check
M862.1 P0.4 ; nozzle diameter check
M115 U3.9.3 ; tell printer latest fw version
G90 ; use absolute coordinates
M83 ; extruder relative mode
M104 S215 ; set extruder temp
M140 S60 ; set bed temp
M190 S60 ; wait for bed temp
M109 S215 ; wait for extruder temp
G28 W ; home all without mesh bed level
G80 ; mesh bed leveling
G1 Y-3.0 F1000.0 ; go outside print area
G92 E0.0
G1 X60.0 E9.0 F1000.0 ; intro line
G1 X100.0 E12.5 F1000.0 ; intro line
G92 E0.0
M221 S95

; Don't change E values below. Excessive value can damage the printer.
M907 E430 ; set extruder motor current
G21 ; set units to millimeters
G90 ; use absolute coordinates
M83 ; use relative distances for extrusion
M900 K0.05 ; Filament gcode LA 1.5
M900 K30 ; Filament gcode LA 1.0
;LAYER_CHANGE
;Z:0.2
;HEIGHT:0.2
;BEFORE_LAYER_CHANGE
G92 E0.0
;0.2


G1 E-0.80000 F2100.000
G1 Z0.400 F10800.000
;AFTER_LAYER_CHANGE
;0.2
G1 X113.601 Y95.403
G1 Z0.200
G1 E0.80000 F2100.000
M204 S1000
;TYPE:Skirt
;WIDTH:0.42
G1 F1200.000
G1 X114.814 Y94.438 E0.04861
G1 X116.230 Y93.685 E0.05028
G1 X117.141 Y93.361 E0.03033
G1 X118.080 Y93.144 E0.03020
G1 X119.656 Y93.016 E0.04956
G1 X137.574 Y93.654 E0.56218
G1 X139.168 Y93.911 E0.05063
G1 X140.150 Y94.231 E0.03235
G1 X141.093 Y94.668 E0.03259
G1 X141.970 Y95.211 E0.03236
G1 X142.818 Y95.894 E0.03414
G1 X143.539 Y96.639 E0.03251
G1 X144.367 Y97.779 E0.04417
G1 X144.872 Y98.739 E0.03402
G1 X145.229 Y99.683 E0.03164
G1 X145.485 Y100.718 E0.03343
G1 X145.610 Y101.769 E0.03319
G1 X146.125 Y117.440 E0.49163
G1 X146.489 Y149.610 E1.00871
G1 X146.277 Y151.026 E0.04492
G1 X145.955 Y152.083 E0.03462
G1 X145.321 Y153.409 E0.04611
G1 X144.700 Y154.327 E0.03474
G1 X143.706 Y155.406 E0.04599
G1 X142.846 Y156.098 E0.03462
G1 X141.906 Y156.673 E0.03454
G1 X140.550 Y157.247 E0.04619
G1 X139.049 Y157.591 E0.04826
G1 X137.554 Y157.663 E0.04695
G1 X121.578 Y156.874 E0.50150
G1 X120.585 Y156.768 E0.03134
G1 X119.637 Y156.555 E0.03044
G1 X118.105 Y155.957 E0.05158
G1 X116.869 Y155.195 E0.04552
G1 X115.997 Y154.457 E0.03581
G1 X101.002 Y138.875 E0.67806
G1 X100.344 Y138.077 E0.03242
M73 Q1 S24
G1 X99.816 Y137.257 E0.03056
G1 X99.143 Y135.752 E0.05170
G1 X98.877 Y134.779 E0.03164
G1 X98.721 Y133.705 E0.03402
G1 X97.956 Y116.835 E0.52949
M73 P1 R24
G1 X97.988 Y115.835 E0.03137
G1 X98.142 Y114.815 E0.03235
G1 X98.416 Y113.824 E0.03224
G1 X98.806 Y112.873 E0.03223
G1 X99.312 Y111.965 E0.03259
G1 X99.939 Y111.107 E0.03331
G1 X113.562 Y95.449 E0.65077
; printing object Washer.stl id:1 copy 0
;WIPE_START
G1 F8640.000
G1 X114.814 Y94.438 E-0.37163
G1 X116.230 Y93.685 E-0.37025
G1 X116.304 Y93.658 E-0.01812
;WIPE_END
G1 E-0.04000 F2100.000
G1 Z0.600 F10800.000
G1 X133.351 Y115.106
G1 Z0.200
G1 E0.80000 F2100.000
;TYPE:Perimeter
G1 F1200.000
G1 X133.734 Y114.543 E0.02135
G1 X133.988 Y114.245 E0.01229
G1 X134.250 Y113.983 E0.01160
G1 X134.773 Y113.565 E0.02100
G1 X135.103 Y113.354 E0.01229
G1 X135.421 Y113.186 E0.01127
G1 X135.760 Y113.039 E0.01157
G1 X136.422 Y112.834 E0.02175
G1 X136.795 Y112.764 E0.01190
G1 X137.463 Y112.713 E0.02100
G1 X137.855 Y112.726 E0.01229
G1 X138.223 Y112.767 E0.01162
G1 X138.899 Y112.921 E0.02175
G1 X139.248 Y113.043 E0.01157
G1 X139.586 Y113.191 E0.01157
G1 X140.196 Y113.543 E0.02210
G1 X140.756 Y113.989 E0.02243
G1 X141.219 Y114.488 E0.02135
G1 X141.454 Y114.802 E0.01229
G1 X141.650 Y115.115 E0.01160
G1 X141.942 Y115.718 E0.02100
G1 X142.073 Y116.087 E0.01229
G1 X142.166 Y116.435 E0.01127
G1 X142.235 Y116.797 E0.01157
G1 X142.287 Y117.500 E0.02210
G1 X142.235 Y118.203 E0.02210
G1 X142.164 Y118.576 E0.01192
G1 X141.960 Y119.239 E0.02175
G1 X141.808 Y119.587 E0.01192
G1 X141.461 Y120.188 E0.02175
G1 X141.235 Y120.494 E0.01192
G1 X140.763 Y121.002 E0.02175
G1 X140.475 Y121.250 E0.01192
G1 X139.893 Y121.647 E0.02210
G1 X139.248 Y121.958 E0.02244
G1 X138.565 Y122.169 E0.02243
G1 X137.892 Y122.271 E0.02135
G1 X137.489 Y122.288 E0.01262
G1 X136.820 Y122.239 E0.02105
G1 X136.424 Y122.166 E0.01262
G1 X135.783 Y121.969 E0.02105
G1 X135.423 Y121.814 E0.01229
G1 X135.095 Y121.641 E0.01162
G1 X134.513 Y121.244 E0.02210
G1 X133.996 Y120.765 E0.02210
G1 X133.749 Y120.477 E0.01190
G1 X133.370 Y119.924 E0.02100
G1 X133.186 Y119.579 E0.01229
G1 X133.042 Y119.249 E0.01127
G1 X132.920 Y118.901 E0.01157
G1 X132.763 Y118.214 E0.02210
G1 X132.710 Y117.500 E0.02244
G1 X132.763 Y116.786 E0.02244
G1 X132.920 Y116.099 E0.02210
G1 X133.046 Y115.740 E0.01192
G1 X133.325 Y115.160 E0.02020
G1 X133.665 Y115.324 F10800.000
;TYPE:External perimeter
G1 F1200.000
G1 X134.034 Y114.772 E0.02082
G1 X134.265 Y114.501 E0.01117
G1 X134.502 Y114.264 E0.01048
G1 X134.992 Y113.872 E0.01970
G1 X135.293 Y113.681 E0.01117
G1 X135.891 Y113.393 E0.02081
G1 X136.513 Y113.201 E0.02042
G1 X136.845 Y113.138 E0.01058
G1 X137.472 Y113.090 E0.01970
G1 X137.828 Y113.102 E0.01117
G1 X138.160 Y113.139 E0.01048
G1 X138.795 Y113.284 E0.02042
G1 X139.416 Y113.528 E0.02091
G1 X139.983 Y113.856 E0.02055
G1 X140.499 Y114.267 E0.02067
G1 X140.929 Y114.730 E0.01983
G1 X141.142 Y115.015 E0.01117
G1 X141.320 Y115.298 E0.01048
G1 X141.593 Y115.864 E0.01970
G1 X141.713 Y116.200 E0.01117
G1 X141.860 Y116.847 E0.02081
G1 X141.909 Y117.500 E0.02055
G1 X141.860 Y118.153 E0.02055
G1 X141.798 Y118.485 E0.01059
G1 X141.606 Y119.108 E0.02042
G1 X141.471 Y119.417 E0.01059
G1 X141.145 Y119.981 E0.02042
G1 X140.944 Y120.253 E0.01059
G1 X140.501 Y120.730 E0.02042
G1 X140.245 Y120.951 E0.01059
G1 X139.704 Y121.320 E0.02055
G1 X139.110 Y121.606 E0.02067
G1 X138.480 Y121.800 E0.02067
G1 X137.855 Y121.895 E0.01983
G1 X137.495 Y121.910 E0.01129
G1 X136.868 Y121.864 E0.01972
G1 X136.514 Y121.799 E0.01129
G1 X135.913 Y121.615 E0.01972
G1 X135.586 Y121.474 E0.01117
G1 X135.290 Y121.318 E0.01048
G1 X134.749 Y120.948 E0.02055
G1 X134.268 Y120.503 E0.02055
G1 X134.048 Y120.247 E0.01058
G1 X133.693 Y119.728 E0.01970
G1 X133.525 Y119.414 E0.01117
G1 X133.283 Y118.796 E0.02081
G1 X133.137 Y118.157 E0.02055
G1 X133.088 Y117.500 E0.02067
G1 X133.137 Y116.843 E0.02067
G1 X133.283 Y116.204 E0.02055
G1 X133.394 Y115.885 E0.01059
G1 X133.639 Y115.378 E0.01766
G1 X133.467 Y114.976 F10800.000
;WIPE_START
G1 F8640.000
G1 X134.034 Y114.772 E-0.16705
G1 X134.265 Y114.501 E-0.08226
G1 X134.502 Y114.264 E-0.07715
G1 X134.992 Y113.872 E-0.14510
G1 X135.293 Y113.681 E-0.08226
G1 X135.891 Y113.393 E-0.15323
G1 X136.110 Y113.325 E-0.05294
;WIPE_END
G1 E-0.04000 F2100.000
G1 Z0.600 F10800.000
G1 X132.700 Y114.893
G1 Z0.200
G1 E0.80000 F2100.000
;TYPE:Perimeter
G1 F1200.000
G1 X133.085 Y114.282 E0.02263
G1 X133.274 Y114.038 E0.00970
G1 X133.730 Y113.546 E0.02104
G1 X133.960 Y113.339 E0.00970
G1 X134.490 Y112.942 E0.02076
G1 X135.055 Y112.615 E0.02048
G1 X135.656 Y112.358 E0.02049
G1 X136.280 Y112.176 E0.02038
G1 X136.596 Y112.113 E0.01009
G1 X137.254 Y112.044 E0.02075
G1 X137.904 Y112.053 E0.02038
G1 X138.224 Y112.086 E0.01009
G1 X138.881 Y112.216 E0.02102
G1 X139.178 Y112.302 E0.00970
G1 X139.794 Y112.544 E0.02076
G1 X140.370 Y112.854 E0.02049
G1 X140.902 Y113.228 E0.02038
G1 X141.147 Y113.435 E0.01009
G1 X141.618 Y113.913 E0.02102
G1 X141.814 Y114.152 E0.00970
G1 X142.187 Y114.699 E0.02076
G1 X142.488 Y115.278 E0.02048
G1 X142.718 Y115.890 E0.02048
G1 X142.875 Y116.533 E0.02076
G1 X142.951 Y117.165 E0.01993
G1 X142.951 Y117.827 E0.02076
G1 X142.872 Y118.484 E0.02076
G1 X142.721 Y119.102 E0.01993
G1 X142.488 Y119.722 E0.02076
G1 X142.187 Y120.301 E0.02048
G1 X141.819 Y120.841 E0.02048
G1 X141.384 Y121.340 E0.02076
G1 X141.160 Y121.553 E0.00970
G1 X140.636 Y121.972 E0.02104
G1 X140.378 Y122.142 E0.00970
G1 X139.794 Y122.456 E0.02076
G1 X139.186 Y122.694 E0.02048
G1 X138.546 Y122.861 E0.02076
G1 X137.916 Y122.946 E0.01993
G1 X137.254 Y122.956 E0.02076
G1 X136.595 Y122.887 E0.02076
G1 X135.975 Y122.746 E0.01993
G1 X135.352 Y122.522 E0.02076
G1 X134.768 Y122.230 E0.02048
G1 X134.223 Y121.870 E0.02048
G1 X133.717 Y121.442 E0.02076
G1 X133.285 Y120.976 E0.01993
G1 X132.896 Y120.440 E0.02076
G1 X132.578 Y119.870 E0.02049
G1 X132.331 Y119.268 E0.02038
G1 X132.235 Y118.961 E0.01009
G1 X132.096 Y118.305 E0.02102
G1 X132.059 Y117.998 E0.00970
G1 X132.039 Y117.328 E0.02104
G1 X132.057 Y117.019 E0.00970
G1 X132.156 Y116.364 E0.02076
G1 X132.330 Y115.735 E0.02049
G1 X132.576 Y115.133 E0.02038
G1 X132.673 Y114.946 E0.00659
G1 X132.338 Y114.773 F10800.000
;TYPE:External perimeter
G1 F1200.000
G1 X132.776 Y114.065 E0.02612
G1 X132.986 Y113.794 E0.01076
G1 X133.465 Y113.277 E0.02210
G1 X133.720 Y113.047 E0.01076
G1 X134.282 Y112.626 E0.02200
G1 X134.887 Y112.277 E0.02190
G1 X135.529 Y112.003 E0.02190
G1 X136.190 Y111.809 E0.02161
G1 X136.539 Y111.740 E0.01115
G1 X137.237 Y111.666 E0.02199
G1 X137.926 Y111.676 E0.02161
G1 X138.280 Y111.713 E0.01115
G1 X138.971 Y111.849 E0.02209
G1 X139.300 Y111.945 E0.01076
G1 X139.953 Y112.201 E0.02200
G1 X140.568 Y112.532 E0.02190
G1 X141.132 Y112.929 E0.02161
G1 X141.404 Y113.158 E0.01115
G1 X141.898 Y113.660 E0.02209
G1 X142.116 Y113.925 E0.01076
G1 X142.512 Y114.505 E0.02200
G1 X142.833 Y115.125 E0.02190
G1 X143.079 Y115.779 E0.02190
G1 X143.245 Y116.460 E0.02200
G1 X143.328 Y117.148 E0.02170
G1 X143.328 Y117.849 E0.02200
G1 X143.244 Y118.546 E0.02200
G1 X143.080 Y119.218 E0.02170
G1 X142.833 Y119.875 E0.02200
G1 X142.512 Y120.495 E0.02190
G1 X142.118 Y121.072 E0.02190
G1 X141.656 Y121.601 E0.02200
G1 X141.408 Y121.838 E0.01076
G1 X140.857 Y122.277 E0.02210
G1 X140.571 Y122.466 E0.01076
G1 X139.953 Y122.799 E0.02200
G1 X139.303 Y123.054 E0.02190
G1 X138.624 Y123.230 E0.02200
G1 X137.938 Y123.323 E0.02170
G1 X137.237 Y123.334 E0.02200
G1 X136.539 Y123.260 E0.02200
G1 X135.864 Y123.106 E0.02170
G1 X135.204 Y122.870 E0.02200
G1 X134.579 Y122.557 E0.02190
G1 X133.996 Y122.172 E0.02190
G1 X133.461 Y121.719 E0.02200
G1 X132.990 Y121.211 E0.02170
G1 X132.578 Y120.644 E0.02200
G1 X132.237 Y120.034 E0.02190
G1 X131.976 Y119.396 E0.02161
G1 X131.870 Y119.056 E0.01115
G1 X131.724 Y118.367 E0.02209
G1 X131.683 Y118.027 E0.01076
G1 X131.662 Y117.322 E0.02210
G1 X131.682 Y116.980 E0.01076
G1 X131.787 Y116.286 E0.02200
G1 X131.973 Y115.613 E0.02190
G1 X132.310 Y114.827 E0.02682
G1 X132.737 Y114.758 F10800.000
G1 X133.018 Y115.016
;TYPE:Gap fill
;WIDTH:0.331471
G1 F1200.000
G1 X133.471 Y114.332 E0.01969
G1 X134.032 Y113.727 E0.01980
G1 X134.585 Y113.288 E0.01695
G1 X134.932 Y113.070 E0.00983
G1 X135.271 Y112.887 E0.00925
G1 X135.771 Y112.679 E0.01300
G1 X136.349 Y112.506 E0.01448
G1 X136.744 Y112.433 E0.00961
G1 X137.269 Y112.385 E0.01266
G1 X137.884 Y112.390 E0.01475
G1 X138.287 Y112.439 E0.00975
G1 X138.985 Y112.596 E0.01715
G1 X139.729 Y112.889 E0.01920
G1 X140.190 Y113.145 E0.01265
G1 X140.692 Y113.500 E0.01474
G1 X140.990 Y113.752 E0.00937
G1 X141.473 Y114.266 E0.01692
G1 X141.731 Y114.619 E0.01049
G1 X141.947 Y114.960 E0.00970
G1 X142.176 Y115.418 E0.01227
G1 X142.395 Y115.990 E0.01470
G1 X142.569 Y116.762 E0.01899
G1 X142.619 Y117.489 E0.01750
G1 X142.608 Y117.806 E0.00761
G1 X142.564 Y118.254 E0.01080
G1 X142.476 Y118.715 E0.01125
G1 X142.274 Y119.347 E0.01593
G1 X142.101 Y119.745 E0.01040
G1 X141.893 Y120.125 E0.01042
G1 X141.552 Y120.634 E0.01470
G1 X141.136 Y121.103 E0.01503
G1 X140.937 Y121.299 E0.00669
G1 X140.434 Y121.694 E0.01536
G1 X140.069 Y121.930 E0.01043
G1 X139.650 Y122.144 E0.01128
G1 X139.080 Y122.368 E0.01469
G1 X138.629 Y122.496 E0.01126
G1 X138.186 Y122.573 E0.01078
G1 X137.895 Y122.609 E0.00702
G1 X137.269 Y122.614 E0.01503
G1 X136.770 Y122.569 E0.01203
G1 X136.353 Y122.495 E0.01016
G1 X135.675 Y122.284 E0.01703
G1 X135.274 Y122.112 E0.01048
G1 X134.929 Y121.933 E0.00932
G1 X134.314 Y121.511 E0.01790
G1 X133.759 Y121.005 E0.01802
G1 X133.550 Y120.765 E0.00764
G1 X133.184 Y120.256 E0.01503
G1 X132.885 Y119.731 E0.01450
G1 X132.600 Y119.002 E0.01879
G1 X132.428 Y118.250 E0.01849
G1 X132.377 Y117.511 E0.01778
G1 X132.399 Y117.055 E0.01095
G1 X132.492 Y116.436 E0.01502
G1 X132.602 Y115.999 E0.01080
G1 X132.742 Y115.606 E0.01001
G1 X132.991 Y115.070 E0.01418
; stop printing object Washer.stl id:1 copy 0
; printing object Washer.stl id:5 copy 0
;WIPE_START
G1 F8640.000
G1 X133.471 Y114.332 E-0.20322
G1 X134.032 Y113.727 E-0.19052
G1 X134.585 Y113.288 E-0.16309
G1 X134.932 Y113.070 E-0.09458
G1 X135.271 Y112.887 E-0.08902
G1 X135.349 Y112.855 E-0.01958
;WIPE_END
G1 E-0.04000 F2100.000
G1 Z0.600 F10800.000
G1 X135.922 Y106.927
G1 Z0.200
G1 E0.80000 F2100.000
;TYPE:Perimeter
;WIDTH:0.42
G1 F1200.000
G1 X135.281 Y106.730 E0.02105
G1 X134.921 Y106.575 E0.01229
G1 X134.593 Y106.402 E0.01162
G1 X134.011 Y106.005 E0.02210
G1 X133.494 Y105.526 E0.02210
G1 X133.247 Y105.238 E0.01190
G1 X132.869 Y104.685 E0.02100
G1 X132.684 Y104.339 E0.01229
G1 X132.540 Y104.010 E0.01127
G1 X132.418 Y103.662 E0.01157
G1 X132.261 Y102.975 E0.02210
G1 X132.208 Y102.261 E0.02244
G1 X132.261 Y101.547 E0.02244
G1 X132.418 Y100.860 E0.02210
G1 X132.544 Y100.501 E0.01192
G1 X132.849 Y99.867 E0.02208
G1 X133.232 Y99.304 E0.02135
G1 X133.486 Y99.005 E0.01229
G1 X133.748 Y98.744 E0.01160
G1 X134.271 Y98.325 E0.02100
G1 X134.602 Y98.115 E0.01229
G1 X134.919 Y97.947 E0.01127
G1 X135.258 Y97.800 E0.01157
G1 X135.921 Y97.595 E0.02175
G1 X136.294 Y97.525 E0.01190
G1 X136.961 Y97.474 E0.02100
G1 X137.353 Y97.486 E0.01229
G1 X137.721 Y97.528 E0.01162
G1 X138.397 Y97.682 E0.02175
G1 X138.746 Y97.804 E0.01157
G1 X139.084 Y97.952 E0.01157
G1 X139.694 Y98.304 E0.02210
G1 X140.254 Y98.750 E0.02243
G1 X140.717 Y99.248 E0.02135
G1 X140.952 Y99.563 E0.01229
G1 X141.149 Y99.876 E0.01160
G1 X141.440 Y100.479 E0.02100
G1 X141.571 Y100.848 E0.01229
G1 X141.664 Y101.195 E0.01127
G1 X141.733 Y101.558 E0.01157
G1 X141.786 Y102.261 E0.02210
G1 X141.733 Y102.964 E0.02210
G1 X141.662 Y103.337 E0.01192
G1 X141.458 Y104.000 E0.02175
G1 X141.306 Y104.348 E0.01192
G1 X140.959 Y104.949 E0.02175
G1 X140.733 Y105.255 E0.01192
G1 X140.261 Y105.763 E0.02175
G1 X139.973 Y106.011 E0.01192
G1 X139.391 Y106.408 E0.02210
G1 X138.746 Y106.719 E0.02244
G1 X138.063 Y106.929 E0.02243
G1 X137.390 Y107.032 E0.02135
G1 X136.988 Y107.049 E0.01262
G1 X136.318 Y107.000 E0.02105
G1 X135.981 Y106.938 E0.01074
G1 X136.050 Y106.567 F10800.000
;TYPE:External perimeter
G1 F1200.000
G1 X135.411 Y106.375 E0.02091
G1 X135.084 Y106.235 E0.01117
G1 X134.788 Y106.078 E0.01048
G1 X134.247 Y105.709 E0.02055
G1 X133.766 Y105.264 E0.02055
G1 X133.546 Y105.008 E0.01058
G1 X133.191 Y104.489 E0.01970
G1 X133.023 Y104.175 E0.01117
G1 X132.781 Y103.557 E0.02081
G1 X132.635 Y102.918 E0.02055
G1 X132.586 Y102.261 E0.02067
G1 X132.635 Y101.603 E0.02067
G1 X132.781 Y100.965 E0.02055
G1 X132.893 Y100.646 E0.01059
G1 X133.177 Y100.056 E0.02054
G1 X133.532 Y99.533 E0.01983
G1 X133.763 Y99.261 E0.01117
G1 X134.000 Y99.025 E0.01048
G1 X134.490 Y98.633 E0.01970
G1 X134.791 Y98.442 E0.01117
G1 X135.083 Y98.287 E0.01036
G1 X135.389 Y98.154 E0.01046
G1 X136.011 Y97.962 E0.02042
G1 X136.343 Y97.899 E0.01058
G1 X136.970 Y97.851 E0.01970
G1 X137.326 Y97.863 E0.01117
G1 X137.658 Y97.900 E0.01048
G1 X138.293 Y98.045 E0.02042
G1 X138.608 Y98.155 E0.01046
G1 X138.914 Y98.289 E0.01046
G1 X139.481 Y98.616 E0.02055
G1 X139.997 Y99.027 E0.02067
G1 X140.427 Y99.490 E0.01983
G1 X140.640 Y99.776 E0.01117
G1 X140.818 Y100.059 E0.01048
G1 X141.092 Y100.625 E0.01970
G1 X141.211 Y100.960 E0.01117
G1 X141.296 Y101.279 E0.01036
G1 X141.358 Y101.607 E0.01046
M73 Q2 S24
G1 X141.407 Y102.261 E0.02055
